X: 4
T: B\aatsman Deck
I: Batsman Deck	M-2	G	hambo
C: M-2 \2511980 Matt Fichtenbaum
M: 3/4
Z: Transcribed to abc by Mary Lou Knack
R: hambo
K: G
"G"D>G B>G D>G| B2 B4| c>B A>G F>G| "D"A2 A4|
"D"D>F A>F D>A| c2 c4| d>c B>A G>A| "G"B2 B4:|
\
|: "C"e2 e>d c>e| "G"d2 d>c B>d| "D"c>B A>G F>A| "G"G2 (3BGB d2|
   "C"e2 e>d c>e| "G"d2 d>c B>d| "D"c>B A>G F>A| "G"G2 G4:|

% ---------- page 3 ----------
#include "RightHeader.h"
%%footer 09/01/98 For use only by Roaring Jelly members

%%scale .75
